assets/img/services/instagram/logo.svg

<svg height="132" width="132.004" xmlns="http://www.w3.org/2000/svg" xmlns:xlink="http://www.w3.org/1999/xlink"><radialGradient id="a" cx="158.429" cy="578.088" gradientTransform="matrix(0 -1.98198 1.8439 0 -1031.402 454.004)" gradientUnits="userSpaceOnUse" r="65"><stop offset="0" stop-color="#fd5"/><stop offset=".1" stop-color="#fd5"/><stop offset=".5" stop-color="#ff543e"/><stop offset="1" stop-color="#c837ab"/></radialGradient><radialGradient id="b" cx="147.694" cy="473.455" gradientTransform="matrix(.17394 .86872 -3.5818 .71718 1648.348 -458.493)" gradientUnits="userSpaceOnUse" r="65"><stop offset="0" stop-color="#3771c8"/><stop offset=".128" stop-color="#3771c8"/><stop offset="1" stop-color="#60f" stop-opacity="0"/></radialGradient><path d="m65.03 0c-27.142 0-35.08.028-36.623.156-5.57.463-9.036 1.34-12.812 3.22-2.91 1.445-5.205 3.12-7.47 5.468-4.125 4.282-6.625 9.55-7.53 15.812-.44 3.04-.568 3.66-.594 19.188-.01 5.176 0 11.988 0 21.125 0 27.12.03 35.05.16 36.59.45 5.42 1.3 8.83 3.1 12.56 3.44 7.14 10.01 12.5 17.75 14.5 2.68.69 5.64 1.07 9.44 1.25 1.61.07 18.02.12 34.44.12s32.84-.02 34.41-.1c4.4-.207 6.955-.55 9.78-1.28 7.79-2.01 14.24-7.29 17.75-14.53 1.765-3.64 2.66-7.18 3.065-12.317.088-1.12.125-18.977.125-36.81 0-17.836-.04-35.66-.128-36.78-.41-5.22-1.305-8.73-3.127-12.44-1.495-3.037-3.155-5.305-5.565-7.624-4.301-4.108-9.561-6.608-15.829-7.512-3.037-.439-3.642-.569-19.182-.596z" fill="url(#a)" transform="translate(1.004 1)"/><path d="m65.03 0c-27.142 0-35.08.028-36.623.156-5.57.463-9.036 1.34-12.812 3.22-2.91 1.445-5.205 3.12-7.47 5.468-4.125 4.282-6.625 9.55-7.53 15.812-.44 3.04-.568 3.66-.594 19.188-.01 5.176 0 11.988 0 21.125 0 27.12.03 35.05.16 36.59.45 5.42 1.3 8.83 3.1 12.56 3.44 7.14 10.01 12.5 17.75 14.5 2.68.69 5.64 1.07 9.44 1.25 1.61.07 18.02.12 34.44.12s32.84-.02 34.41-.1c4.4-.207 6.955-.55 9.78-1.28 7.79-2.01 14.24-7.29 17.75-14.53 1.765-3.64 2.66-7.18 3.065-12.317.088-1.12.125-18.977.125-36.81 0-17.836-.04-35.66-.128-36.78-.41-5.22-1.305-8.73-3.127-12.44-1.495-3.037-3.155-5.305-5.565-7.624-4.301-4.108-9.561-6.608-15.829-7.512-3.037-.439-3.642-.569-19.182-.596z" fill="url(#b)" transform="translate(1.004 1)"/><path d="m66.004 18c-13.036 0-14.672.057-19.792.29-5.11.234-8.598 1.043-11.65 2.23-3.157 1.226-5.835 2.866-8.503 5.535-2.67 2.668-4.31 5.346-5.54 8.502-1.19 3.053-2 6.542-2.23 11.65-.229 5.12-.289 6.757-.289 19.793s.058 14.667.29 19.787c.235 5.11 1.044 8.598 2.23 11.65 1.227 3.157 2.867 5.835 5.536 8.503 2.667 2.67 5.345 4.314 8.5 5.54 3.054 1.187 6.543 1.996 11.652 2.23 5.12.233 6.755.29 19.79.29 13.037 0 14.668-.057 19.788-.29 5.11-.234 8.602-1.043 11.656-2.23 3.156-1.226 5.83-2.87 8.497-5.54 2.67-2.668 4.31-5.346 5.54-8.502 1.18-3.053 1.99-6.542 2.23-11.65.23-5.12.29-6.752.29-19.788s-.06-14.672-.29-19.792c-.24-5.11-1.05-8.598-2.23-11.65-1.23-3.157-2.87-5.835-5.54-8.503-2.67-2.67-5.34-4.31-8.5-5.535-3.06-1.187-6.55-1.996-11.66-2.23-5.12-.233-6.75-.29-19.79-.29zm-4.306 8.65c1.278-.002 2.704 0 4.306 0 12.816 0 14.335.046 19.396.276 4.68.214 7.22.996 8.912 1.653 2.24.87 3.837 1.91 5.516 3.59 1.68 1.68 2.72 3.28 3.592 5.52.657 1.69 1.44 4.23 1.653 8.91.23 5.06.28 6.58.28 19.39s-.05 14.33-.28 19.39c-.214 4.68-.996 7.22-1.653 8.91-.87 2.24-1.912 3.835-3.592 5.514-1.68 1.68-3.275 2.72-5.516 3.59-1.69.66-4.232 1.44-8.912 1.654-5.06.23-6.58.28-19.396.28-12.817 0-14.336-.05-19.396-.28-4.68-.216-7.22-.998-8.913-1.655-2.24-.87-3.84-1.91-5.52-3.59s-2.72-3.276-3.592-5.517c-.657-1.69-1.44-4.23-1.653-8.91-.23-5.06-.276-6.58-.276-19.398s.046-14.33.276-19.39c.214-4.68.996-7.22 1.653-8.912.87-2.24 1.912-3.84 3.592-5.52s3.28-2.72 5.52-3.592c1.692-.66 4.233-1.44 8.913-1.655 4.428-.2 6.144-.26 15.09-.27zm29.928 7.97c-3.18 0-5.76 2.577-5.76 5.758 0 3.18 2.58 5.76 5.76 5.76s5.76-2.58 5.76-5.76-2.58-5.76-5.76-5.76zm-25.622 6.73c-13.613 0-24.65 11.037-24.65 24.65s11.037 24.645 24.65 24.645 24.646-11.032 24.646-24.645-11.034-24.65-24.647-24.65zm0 8.65c8.836 0 16 7.163 16 16 0 8.836-7.164 16-16 16-8.837 0-16-7.164-16-16 0-8.837 7.163-16 16-16z" fill="#fff"/></svg>

<?xml version="1.0" encoding="UTF-8" standalone="no"?>
<!DOCTYPE svg PUBLIC "-//W3C//DTD SVG 1.1//EN" "http://www.w3.org/Graphics/SVG/1.1/DTD/svg11.dtd">
<svg width="100%" height="100%" viewBox="0 0 135 135" version="1.1" xmlns="http://www.w3.org/2000/svg" xmlns:xlink="http://www.w3.org/1999/xlink" xml:space="preserve" xmlns:serif="http://www.serif.com/" style="fill-rule:evenodd;clip-rule:evenodd;stroke-linejoin:round;stroke-miterlimit:2;">
    <g id="Artboard1" transform="matrix(0.131836,0,0,0.131836,0,0)">
        <rect x="0" y="0" width="1024" height="1024" style="fill:none;"/>
        <g transform="matrix(7.58519,0,0,7.58519,26.5785,26.5481)">
            <path d="M65.03,0C37.888,0 29.95,0.028 28.407,0.156C22.837,0.619 19.371,1.496 15.595,3.376C12.685,4.821 10.39,6.496 8.125,8.844C4,13.126 1.5,18.394 0.595,24.656C0.155,27.696 0.027,28.316 0.001,43.844C-0.009,49.02 0.001,55.832 0.001,64.969C0.001,92.089 0.031,100.019 0.161,101.559C0.611,106.979 1.461,110.389 3.261,114.119C6.701,121.259 13.271,126.619 21.011,128.619C23.691,129.309 26.651,129.689 30.451,129.869C32.061,129.939 48.471,129.989 64.891,129.989C81.311,129.989 97.731,129.969 99.301,129.889C103.701,129.682 106.256,129.339 109.081,128.609C116.871,126.599 123.321,121.319 126.831,114.079C128.596,110.439 129.491,106.899 129.896,101.762C129.984,100.642 130.021,82.785 130.021,64.952C130.021,47.116 129.981,29.292 129.893,28.172C129.483,22.952 128.588,19.442 126.766,15.732C125.271,12.695 123.611,10.427 121.201,8.108C116.9,4 111.64,1.5 105.372,0.596C102.335,0.157 101.73,0.027 86.19,0L65.03,0Z" style="fill:url(#_Radial1);fill-rule:nonzero;"/>
        </g>
        <g transform="matrix(7.58519,0,0,7.58519,26.5785,26.5481)">
            <path d="M65.03,0C37.888,0 29.95,0.028 28.407,0.156C22.837,0.619 19.371,1.496 15.595,3.376C12.685,4.821 10.39,6.496 8.125,8.844C4,13.126 1.5,18.394 0.595,24.656C0.155,27.696 0.027,28.316 0.001,43.844C-0.009,49.02 0.001,55.832 0.001,64.969C0.001,92.089 0.031,100.019 0.161,101.559C0.611,106.979 1.461,110.389 3.261,114.119C6.701,121.259 13.271,126.619 21.011,128.619C23.691,129.309 26.651,129.689 30.451,129.869C32.061,129.939 48.471,129.989 64.891,129.989C81.311,129.989 97.731,129.969 99.301,129.889C103.701,129.682 106.256,129.339 109.081,128.609C116.871,126.599 123.321,121.319 126.831,114.079C128.596,110.439 129.491,106.899 129.896,101.762C129.984,100.642 130.021,82.785 130.021,64.952C130.021,47.116 129.981,29.292 129.893,28.172C129.483,22.952 128.588,19.442 126.766,15.732C125.271,12.695 123.611,10.427 121.201,8.108C116.9,4 111.64,1.5 105.372,0.596C102.335,0.157 101.73,0.027 86.19,0L65.03,0Z" style="fill:url(#_Radial2);fill-rule:nonzero;"/>
        </g>
        <g transform="matrix(7.58519,0,0,7.58519,18.963,18.963)">
            <path d="M66.004,18C52.968,18 51.332,18.057 46.212,18.29C41.102,18.524 37.614,19.333 34.562,20.52C31.405,21.746 28.727,23.386 26.059,26.055C23.389,28.723 21.749,31.401 20.519,34.557C19.329,37.61 18.519,41.099 18.289,46.207C18.06,51.327 18,52.964 18,66C18,79.036 18.058,80.667 18.29,85.787C18.525,90.897 19.334,94.385 20.52,97.437C21.747,100.594 23.387,103.272 26.056,105.94C28.723,108.61 31.401,110.254 34.556,111.48C37.61,112.667 41.099,113.476 46.208,113.71C51.328,113.943 52.963,114 65.998,114C79.035,114 80.666,113.943 85.786,113.71C90.896,113.476 94.388,112.667 97.442,111.48C100.598,110.254 103.272,108.61 105.939,105.94C108.609,103.272 110.249,100.594 111.479,97.438C112.659,94.385 113.469,90.896 113.709,85.788C113.939,80.668 113.999,79.036 113.999,66C113.999,52.964 113.939,51.328 113.709,46.208C113.469,41.098 112.659,37.61 111.479,34.558C110.249,31.401 108.609,28.723 105.939,26.055C103.269,23.385 100.599,21.745 97.439,20.52C94.379,19.333 90.889,18.524 85.779,18.29C80.659,18.057 79.029,18 65.989,18L66.004,18ZM61.698,26.65C62.976,26.648 64.402,26.65 66.004,26.65C78.82,26.65 80.339,26.696 85.4,26.926C90.08,27.14 92.62,27.922 94.312,28.579C96.552,29.449 98.149,30.489 99.828,32.169C101.508,33.849 102.548,35.449 103.42,37.689C104.077,39.379 104.86,41.919 105.073,46.599C105.303,51.659 105.353,53.179 105.353,65.989C105.353,78.799 105.303,80.319 105.073,85.379C104.859,90.059 104.077,92.599 103.42,94.289C102.55,96.529 101.508,98.124 99.828,99.803C98.148,101.483 96.553,102.523 94.312,103.393C92.622,104.053 90.08,104.833 85.4,105.047C80.34,105.277 78.82,105.327 66.004,105.327C53.187,105.327 51.668,105.277 46.608,105.047C41.928,104.831 39.388,104.049 37.695,103.392C35.455,102.522 33.855,101.482 32.175,99.802C30.495,98.122 29.455,96.526 28.583,94.285C27.926,92.595 27.143,90.055 26.93,85.375C26.7,80.315 26.654,78.795 26.654,65.977C26.654,53.159 26.7,51.647 26.93,46.587C27.144,41.907 27.926,39.367 28.583,37.675C29.453,35.435 30.495,33.835 32.175,32.155C33.855,30.475 35.455,29.435 37.695,28.563C39.387,27.903 41.928,27.123 46.608,26.908C51.036,26.708 52.752,26.648 61.698,26.638L61.698,26.65ZM91.626,34.62C88.446,34.62 85.866,37.197 85.866,40.378C85.866,43.558 88.446,46.138 91.626,46.138C94.806,46.138 97.386,43.558 97.386,40.378C97.386,37.198 94.806,34.618 91.626,34.618L91.626,34.62ZM66.004,41.35C52.391,41.35 41.354,52.387 41.354,66C41.354,79.613 52.391,90.645 66.004,90.645C79.617,90.645 90.65,79.613 90.65,66C90.65,52.387 79.616,41.35 66.003,41.35L66.004,41.35ZM66.004,50C74.84,50 82.004,57.163 82.004,66C82.004,74.836 74.84,82 66.004,82C57.167,82 50.004,74.836 50.004,66C50.004,57.163 57.167,50 66.004,50Z" style="fill:white;fill-rule:nonzero;"/>
        </g>
    </g>
    <defs>
        <radialGradient id="_Radial1" cx="0" cy="0" r="1" gradientUnits="userSpaceOnUse" gradientTransform="matrix(0,-128.829,119.854,0,34.5345,140.001)"><stop offset="0" style="stop-color:rgb(255,221,85);stop-opacity:1"/><stop offset="0.1" style="stop-color:rgb(255,221,85);stop-opacity:1"/><stop offset="0.5" style="stop-color:rgb(255,84,62);stop-opacity:1"/><stop offset="1" style="stop-color:rgb(200,55,171);stop-opacity:1"/></radialGradient>
        <radialGradient id="_Radial2" cx="0" cy="0" r="1" gradientUnits="userSpaceOnUse" gradientTransform="matrix(11.3061,56.4668,-232.817,46.6167,-21.7832,9.36419)"><stop offset="0" style="stop-color:rgb(55,113,200);stop-opacity:1"/><stop offset="0.13" style="stop-color:rgb(55,113,200);stop-opacity:1"/><stop offset="1" style="stop-color:rgb(102,0,255);stop-opacity:0"/></radialGradient>
    </defs>
</svg>
